symbolic/22x22/apps/groovy.svg

<svg xmlns="http://www.w3.org/2000/svg" width="22" height="22" version="1.1">
 <g transform="translate(-1,-1)">
  <circle style="opacity:0.2" cx="12" cy="12.5" r="10"/>
  <circle style="fill:#3f9142" cx="12" cy="12" r="10"/>
  <circle style="opacity:0.1" cx="12" cy="12.5" r="8"/>
  <circle style="fill:#79de7d" cx="12" cy="12" r="8"/>
  <path style="opacity:0.2;fill:#ffffff" d="M 12.307,7.5 C 11.243,7.5 10.308,7.7332 9.5,8.1992 8.6922,8.6603 8.074,9.2999 7.6445,10.119 7.2151,10.938 7,11.872 7,12.922 7,14.031 7.2043,15.005 7.6133,15.844 8.0223,16.678 8.6263,17.33 9.4238,17.801 10.226,18.267 11.179,18.5 12.283,18.5 13.852,18.5 15.031,18.113 15.818,17.338 16.606,16.559 17,15.411 17,13.895 V 13.5 H 13 V 15 H 15 C 14.985,15.417 14.922,15.772 14.651,16.066 14.385,16.356 14.107,16.557 13.688,16.689 13.274,16.817 12.797,16.881 12.26,16.881 11.575,16.881 10.97,16.702 10.444,16.344 9.9221,15.986 9.5224,15.51 9.2463,14.916 8.9756,14.318 8.8403,13.649 8.84,12.914 8.8405,11.821 9.1773,10.914 9.8518,10.199 10.527,9.4778 11.335,9.1187 12.275,9.1187 12.858,9.1187 13.371,9.2657 13.816,9.5601 14.2,9.8139 14.483,10.129 14.676,10.5 H 16.678 C 16.377,9.6151 15.885,8.8978 15.182,8.3609 14.435,7.787 13.477,7.4996 12.307,7.4996 Z"/>
  <path style="fill:#3f9142" d="M 12.307,7 C 11.243,7 10.308,7.2332 9.5,7.6992 8.6922,8.1603 8.074,8.7999 7.6445,9.6191 7.2151,10.438 7,11.372 7,12.422 7,13.531 7.2043,14.505 7.6133,15.344 8.0223,16.178 8.6263,16.83 9.4238,17.301 10.226,17.767 11.179,18 12.283,18 13.853,18 15.031,17.613 15.818,16.838 16.606,16.059 17,14.911 17,13.395 V 13 H 13 V 14.5 H 15 C 14.985,14.917 14.921,15.272 14.65,15.566 14.385,15.856 14.107,16.057 13.687,16.189 13.273,16.317 12.797,16.381 12.26,16.381 11.575,16.381 10.97,16.202 10.443,15.844 9.9219,15.486 9.5222,15.01 9.2461,14.416 8.9754,13.818 8.8401,13.149 8.8398,12.414 8.8403,11.321 9.1771,10.415 9.8516,9.6989 10.526,8.9779 11.335,8.6188 12.275,8.6188 12.858,8.6188 13.371,8.7658 13.816,9.0602 14.2,9.314 14.483,9.6292 14.676,9.9997 H 16.678 C 16.377,9.1152 15.885,8.3979 15.182,7.861 14.435,7.2871 13.477,6.9997 12.307,6.9997 Z"/>
  <path style="opacity:0.2;fill:#ffffff" d="M 12,4 A 8,8 0 0 0 4,12 8,8 0 0 0 4.0098,12.293 8,8 0 0 1 12,4.5 8,8 0 0 1 19.99,12.207 8,8 0 0 0 20,12 8,8 0 0 0 12,4 Z"/>
  <path style="opacity:0.1;fill:#ffffff" d="M 12,2 A 10,10 0 0 0 2,12 10,10 0 0 0 2.0098,12.293 10,10 0 0 1 12,2.5 10,10 0 0 1 21.99,12.207 10,10 0 0 0 22,12 10,10 0 0 0 12,2 Z"/>
 </g>
</svg>

<svg xmlns="http://www.w3.org/2000/svg" width="22" height="22"><g transform="translate(-1 -1)"><circle style="opacity:.2" cx="12" cy="12.5" r="10"/><circle style="fill:#3f9142" cx="12" cy="12" r="10"/><circle style="opacity:.1" cx="12" cy="12.5" r="8"/><circle style="fill:#79de7d" cx="12" cy="12" r="8"/><path style="opacity:.2;fill:#fff" d="M12.307 7.5c-1.064 0-1.999.233-2.807.7a4.66 4.66 0 0 0-1.856 1.919C7.215 10.938 7 11.872 7 12.922c0 1.109.204 2.083.613 2.922a4.556 4.556 0 0 0 1.81 1.957c.803.466 1.756.699 2.86.699 1.569 0 2.748-.387 3.535-1.162.788-.779 1.182-1.927 1.182-3.443V13.5h-4V15h2c-.015.417-.078.772-.349 1.066-.266.29-.544.491-.963.623a4.843 4.843 0 0 1-1.428.192c-.685 0-1.29-.179-1.816-.537a3.47 3.47 0 0 1-1.198-1.428c-.27-.598-.406-1.267-.406-2.002 0-1.093.337-2 1.012-2.715.675-.721 1.483-1.08 2.423-1.08.583 0 1.096.147 1.541.441.384.254.667.569.86.94h2.002c-.301-.885-.793-1.602-1.496-2.14-.747-.573-1.705-.86-2.875-.86z"/><path style="fill:#3f9142" d="M12.307 7c-1.064 0-1.999.233-2.807.7a4.66 4.66 0 0 0-1.856 1.92C7.215 10.437 7 11.371 7 12.421c0 1.109.204 2.083.613 2.922a4.556 4.556 0 0 0 1.81 1.957c.803.466 1.756.699 2.86.699 1.57 0 2.748-.387 3.535-1.162.788-.779 1.182-1.927 1.182-3.443V13h-4v1.5h2c-.015.417-.079.772-.35 1.066-.265.29-.543.491-.963.623-.414.128-.89.192-1.427.192-.685 0-1.29-.179-1.817-.537a3.473 3.473 0 0 1-1.197-1.428c-.27-.598-.406-1.267-.406-2.002 0-1.093.337-1.999 1.012-2.715.674-.721 1.483-1.08 2.423-1.08.583 0 1.096.147 1.541.441.384.254.667.57.86.94h2.002c-.301-.885-.793-1.602-1.496-2.139C14.435 7.287 13.477 7 12.307 7z"/><path style="opacity:.2;fill:#fff" d="M12 4a8 8 0 0 0-8 8 8 8 0 0 0 .01.293A8 8 0 0 1 12 4.5a8 8 0 0 1 7.99 7.707A8 8 0 0 0 20 12a8 8 0 0 0-8-8z"/><path style="opacity:.1;fill:#fff" d="M12 2A10 10 0 0 0 2 12a10 10 0 0 0 .01.293A10 10 0 0 1 12 2.5a10 10 0 0 1 9.99 9.707A10 10 0 0 0 22 12 10 10 0 0 0 12 2z"/></g></svg>
